img/Article/Dev-Think-4Ways2AIWorld/Paradigm 1.svg

<svg xmlns="http://www.w3.org/2000/svg" width="1096" height="161pt" viewBox="0 0 821.72 161.38"><g class="graph" transform="translate(4 157.38)"><path fill="#fff" d="M-4 4v-161.38h821.72V4H-4z"/><g class="node"><path fill="#add8e6" stroke="#000" d="M46-80H12C6-80 0-74 0-68v12c0 6 6 12 12 12h34c6 0 12-6 12-12v-12c0-6-6-12-12-12"/><text text-anchor="middle" x="29" y="-57.8" font-family="Times,serif" font-size="14">游戏开始</text></g><g class="node"><path fill="#add8e6" stroke="#000" d="M160.82-82.8H107c-6 0-12 6-12 12v17.6c0 6 6 12 12 12h53.82c6 0 12-6 12-12v-17.6c0-6-6-12-12-12"/><text text-anchor="middle" x="133.91" y="-66.2" font-family="Times,serif" font-size="14">章节 1</text><text text-anchor="middle" x="133.91" y="-49.4" font-family="Times,serif" font-size="14">(高互动自由)</text></g><g class="edge"><path fill="none" stroke="#000" d="M58.39-62h24.74"/><path stroke="#000" d="m83.08-65.5 10 3.5-10 3.5v-7z"/></g><g class="node"><path fill="#add8e6" stroke="#000" d="M452.81-92.8h-60.83c-6 0-12 6-12 12v17.6c0 6 6 12 12 12h60.83c6 0 12-6 12-12v-17.6c0-6-6-12-12-12"/><text text-anchor="middle" x="422.4" y="-76.2" font-family="Times,serif" font-size="14">章节 2</text><text text-anchor="middle" x="422.4" y="-59.4" font-family="Times,serif" font-size="14">(受章节1影响)</text></g><g class="edge"><path fill="none" stroke="#000" d="M146.4-83.1c9.78-16.01 25.27-37.34 44.42-49.9 7.31-4.79 10.34-3.88 19-5 33.13-4.29 130.76-8.55 152.16 1 16.34 7.29 30.15 21.49 40.34 34.77"/><path stroke="#000" d="m404.87-104.67 3.02 10.16-8.69-6.06 5.67-4.1z"/><text text-anchor="middle" x="231.07" y="-144.38" font-family="Times,serif" font-size="10"> 主要路径 A</text></g><g class="edge"><path fill="none" stroke="#00f" stroke-dasharray="1,5" d="M173.29-71.54c5.85-1.27 11.84-2.48 17.53-3.46 75.07-12.93 95.37-16.58 171.16-9 2.25.22 4.54.5 6.85.81"/><path fill="#00f" stroke="#00f" d="m378.48-81.7-9.19-5.98 5.45 5.4-6.14-.95 6.14.95-6.83 3.5 10.57-2.92z"/><text text-anchor="middle" x="231.07" y="-111.76" font-family="Times,serif" font-size="10" fill="#00f">  状态继承:</text><text text-anchor="middle" x="231.07" y="-99.76" font-family="Times,serif" font-size="10" fill="#00f">  情感, 关系,</text><text text-anchor="middle" x="231.07" y="-87.76" font-family="Times,serif" font-size="10" fill="#00f">  关键信息</text></g><g class="node"><circle fill="#add8e6" stroke="#000" cx="231.07" cy="-60" r="1.8"/></g><g class="edge"><path fill="none" stroke="#000" d="M173.07-61.2c23.99.51 51.32 1.08 56.23 1.18"/></g><g class="node"><circle fill="#add8e6" stroke="#000" cx="231.07" cy="-37" r="1.8"/></g><g class="edge"><path fill="none" stroke="#000" d="M173.07-51.98c23.99 6.31 51.32 13.49 56.23 14.78"/></g><g class="node"><path fill="#add8e6" stroke="#000" d="M615.3-92.8h-60.82c-6 0-12 6-12 12v17.6c0 6 6 12 12 12h60.82c6 0 12-6 12-12v-17.6c0-6-6-12-12-12"/><text text-anchor="middle" x="584.89" y="-76.2" font-family="Times,serif" font-size="14">章节 3</text><text text-anchor="middle" x="584.89" y="-59.4" font-family="Times,serif" font-size="14">(受章节2影响)</text></g><g class="edge"><path fill="none" stroke="#000" d="M465.15-72h65.43"/><path stroke="#000" d="m530.56-75.5 10 3.5-10 3.5v-7z"/><text text-anchor="middle" x="503.64" y="-75" font-family="Times,serif" font-size="10"> 主要路径 B</text></g><g class="edge"><path fill="none" stroke="#00f" stroke-dasharray="1,5" d="M464.99-59.32c5.93 1.37 11.99 2.55 17.82 3.32 18.36 2.43 23.31 2.43 41.67 0 2.27-.3 4.59-.66 6.91-1.08"/><path fill="#00f" stroke="#00f" d="m541.11-59.08-10.71-2.39 7 3.16-6.09 1.25 6.09-1.25-5.18 5.66 8.89-6.43z"/><text text-anchor="middle" x="503.64" y="-59" font-family="Times,serif" font-size="10" fill="#00f">  状态继承</text></g><g class="node"><circle fill="#add8e6" stroke="#000" cx="666.1" cy="-72" r="1.8"/></g><g class="edge"><path fill="none" stroke="#000" d="M627.35-72h36.46"/></g><g class="node"><ellipse fill="#90ee90" stroke="#000" cx="778.81" cy="-126" rx="34.91" ry="18"/><text text-anchor="middle" x="778.81" y="-121.8" font-family="Times,serif" font-size="14">结局 A</text></g><g class="node"><ellipse fill="#f08080" stroke="#000" cx="778.81" cy="-72" rx="34.38" ry="18"/><text text-anchor="middle" x="778.81" y="-67.8" font-family="Times,serif" font-size="14">结局 B</text></g><g class="node"><ellipse fill="#d3d3d3" stroke="#000" cx="778.81" cy="-18" rx="34.38" ry="18"/><text text-anchor="middle" x="778.81" y="-13.8" font-family="Times,serif" font-size="14">结局 C</text></g><g class="edge"><path fill="none" stroke="#000" d="M233.28-60.08c10.22-.64 83.03-5.26 135-8.55"/><path stroke="#000" d="m367.97-72.12 10.2 2.86-9.76 4.13-.44-6.99z"/><text text-anchor="middle" x="316.15" y="-71.12" font-family="Times,serif" font-size="10"> 选择X (记录状态: 友好↑)</text></g><g class="edge"><path fill="none" stroke="red" stroke-dasharray="5,2" d="M233.13-36.95c9.21.37 76.53 2.62 128.85-10.05 2.3-.56 4.62-1.19 6.94-1.88"/><path fill="red" stroke="red" d="m367.74-52.18 10.6.14-8.37 6.5-2.23-6.64z"/><text text-anchor="middle" x="316.15" y="-50" font-family="Times,serif" font-size="10"> 触发Y (记录状态: 敌对↑)</text></g><g class="edge"><path fill="none" stroke="#000" d="M668.04-72.99c2.6-2.7 10.26-10.36 17.86-15.01 16.2-9.9 35.43-18.3 52.11-24.67"/><path stroke="#000" d="m736.52-115.85 10.6-.18-8.17 6.74-2.43-6.56z"/><text text-anchor="middle" x="705.9" y="-110.42" font-family="Times,serif" font-size="10"> 达成条件 α</text></g><g class="edge"><path fill="none" stroke="#000" d="M668.35-72h64.41"/><path stroke="#000" d="m732.63-75.5 10 3.5-10 3.5v-7z"/><text text-anchor="middle" x="705.9" y="-75" font-family="Times,serif" font-size="10"> 达成条件 β</text></g><g class="edge"><path fill="none" stroke="#000" d="M668.04-71.01c2.6 2.7 10.26 10.36 17.86 15.01 16.32 9.97 35.72 18.43 52.48 24.81"/><path stroke="#000" d="m739.36-34.56 8.17 6.74-10.59-.17 2.42-6.57z"/><text text-anchor="middle" x="705.9" y="-59" font-family="Times,serif" font-size="10"> 其他情况</text></g></g></svg>

<svg xmlns="http://www.w3.org/2000/svg" xmlns:xlink="http://www.w3.org/1999/xlink" width="822pt" height="161pt" viewBox="0.00 0.00 821.72 161.38">
<g id="graph0" class="graph" transform="scale(1 1) rotate(0) translate(4 157.38)">
<title>Enhanced_AI_Scripted_Adventure</title>
<polygon fill="white" stroke="none" points="-4,4 -4,-157.38 817.72,-157.38 817.72,4 -4,4"/>
<!-- Start -->
<g id="node1" class="node">
<title>Start</title>
<path fill="lightblue" stroke="black" d="M46,-80C46,-80 12,-80 12,-80 6,-80 0,-74 0,-68 0,-68 0,-56 0,-56 0,-50 6,-44 12,-44 12,-44 46,-44 46,-44 52,-44 58,-50 58,-56 58,-56 58,-68 58,-68 58,-74 52,-80 46,-80"/>
<text text-anchor="middle" x="29" y="-57.8" font-family="Times,serif" font-size="14.00">游戏开始</text>
</g>
<!-- C1 -->
<g id="node2" class="node">
<title>C1</title>
<path fill="lightblue" stroke="black" d="M160.82,-82.8C160.82,-82.8 107,-82.8 107,-82.8 101,-82.8 95,-76.8 95,-70.8 95,-70.8 95,-53.2 95,-53.2 95,-47.2 101,-41.2 107,-41.2 107,-41.2 160.82,-41.2 160.82,-41.2 166.82,-41.2 172.82,-47.2 172.82,-53.2 172.82,-53.2 172.82,-70.8 172.82,-70.8 172.82,-76.8 166.82,-82.8 160.82,-82.8"/>
<text text-anchor="middle" x="133.91" y="-66.2" font-family="Times,serif" font-size="14.00">章节 1</text>
<text text-anchor="middle" x="133.91" y="-49.4" font-family="Times,serif" font-size="14.00">(高互动自由)</text>
</g>
<!-- Start&#45;&gt;C1 -->
<g id="edge1" class="edge">
<title>Start-&gt;C1</title>
<path fill="none" stroke="black" d="M58.39,-62C66.08,-62 74.64,-62 83.13,-62"/>
<polygon fill="black" stroke="black" points="83.08,-65.5 93.08,-62 83.08,-58.5 83.08,-65.5"/>
</g>
<!-- C2 -->
<g id="node3" class="node">
<title>C2</title>
<path fill="lightblue" stroke="black" d="M452.81,-92.8C452.81,-92.8 391.98,-92.8 391.98,-92.8 385.98,-92.8 379.98,-86.8 379.98,-80.8 379.98,-80.8 379.98,-63.2 379.98,-63.2 379.98,-57.2 385.98,-51.2 391.98,-51.2 391.98,-51.2 452.81,-51.2 452.81,-51.2 458.81,-51.2 464.81,-57.2 464.81,-63.2 464.81,-63.2 464.81,-80.8 464.81,-80.8 464.81,-86.8 458.81,-92.8 452.81,-92.8"/>
<text text-anchor="middle" x="422.4" y="-76.2" font-family="Times,serif" font-size="14.00">章节 2</text>
<text text-anchor="middle" x="422.4" y="-59.4" font-family="Times,serif" font-size="14.00">(受章节1影响)</text>
</g>
<!-- C1&#45;&gt;C2 -->
<g id="edge2" class="edge">
<title>C1-&gt;C2</title>
<path fill="none" stroke="black" d="M146.4,-83.1C156.18,-99.11 171.67,-120.44 190.82,-133 198.13,-137.79 201.16,-136.88 209.82,-138 242.95,-142.29 340.58,-146.55 361.98,-137 378.32,-129.71 392.13,-115.51 402.32,-102.23"/>
<polygon fill="black" stroke="black" points="404.87,-104.67 407.89,-94.51 399.2,-100.57 404.87,-104.67"/>
<text text-anchor="middle" x="231.07" y="-144.38" font-family="Times,serif" font-size="10.00"> 主要路径 A</text>
</g>
<!-- C1&#45;&gt;C2 -->
<g id="edge12" class="edge">
<title>C1-&gt;C2</title>
<path fill="none" stroke="blue" stroke-dasharray="1,5" d="M173.29,-71.54C179.14,-72.81 185.13,-74.02 190.82,-75 265.89,-87.93 286.19,-91.58 361.98,-84 364.23,-83.78 366.52,-83.5 368.83,-83.19"/>
<polygon fill="blue" stroke="blue" points="378.48,-81.7 369.29,-87.68 374.74,-82.28 368.6,-83.23 368.6,-83.23 368.6,-83.23 374.74,-82.28 367.91,-78.78 378.48,-81.7"/>
<text text-anchor="middle" x="231.07" y="-111.76" font-family="Times,serif" font-size="10.00" fill="blue">  状态继承:</text>
<text text-anchor="middle" x="231.07" y="-99.76" font-family="Times,serif" font-size="10.00" fill="blue">  情感, 关系,</text>
<text text-anchor="middle" x="231.07" y="-87.76" font-family="Times,serif" font-size="10.00" fill="blue">  关键信息</text>
</g>
<!-- C1_Choice -->
<g id="node8" class="node">
<title>C1_Choice</title>
<ellipse fill="lightblue" stroke="black" cx="231.07" cy="-60" rx="1.8" ry="1.8"/>
</g>
<!-- C1&#45;&gt;C1_Choice -->
<g id="edge4" class="edge">
<title>C1-&gt;C1_Choice</title>
<path fill="none" stroke="black" d="M173.07,-61.2C197.06,-60.69 224.39,-60.12 229.3,-60.02"/>
</g>
<!-- C1_Alt -->
<g id="node9" class="node">
<title>C1_Alt</title>
<ellipse fill="lightblue" stroke="black" cx="231.07" cy="-37" rx="1.8" ry="1.8"/>
</g>
<!-- C1&#45;&gt;C1_Alt -->
<g id="edge6" class="edge">
<title>C1-&gt;C1_Alt</title>
<path fill="none" stroke="black" d="M173.07,-51.98C197.06,-45.67 224.39,-38.49 229.3,-37.2"/>
</g>
<!-- C3 -->
<g id="node4" class="node">
<title>C3</title>
<path fill="lightblue" stroke="black" d="M615.3,-92.8C615.3,-92.8 554.48,-92.8 554.48,-92.8 548.48,-92.8 542.48,-86.8 542.48,-80.8 542.48,-80.8 542.48,-63.2 542.48,-63.2 542.48,-57.2 548.48,-51.2 554.48,-51.2 554.48,-51.2 615.3,-51.2 615.3,-51.2 621.3,-51.2 627.3,-57.2 627.3,-63.2 627.3,-63.2 627.3,-80.8 627.3,-80.8 627.3,-86.8 621.3,-92.8 615.3,-92.8"/>
<text text-anchor="middle" x="584.89" y="-76.2" font-family="Times,serif" font-size="14.00">章节 3</text>
<text text-anchor="middle" x="584.89" y="-59.4" font-family="Times,serif" font-size="14.00">(受章节2影响)</text>
</g>
<!-- C2&#45;&gt;C3 -->
<g id="edge3" class="edge">
<title>C2-&gt;C3</title>
<path fill="none" stroke="black" d="M465.15,-72C485.13,-72 509.29,-72 530.58,-72"/>
<polygon fill="black" stroke="black" points="530.56,-75.5 540.56,-72 530.56,-68.5 530.56,-75.5"/>
<text text-anchor="middle" x="503.64" y="-75" font-family="Times,serif" font-size="10.00"> 主要路径 B</text>
</g>
<!-- C2&#45;&gt;C3 -->
<g id="edge13" class="edge">
<title>C2-&gt;C3</title>
<path fill="none" stroke="blue" stroke-dasharray="1,5" d="M464.99,-59.32C470.92,-57.95 476.98,-56.77 482.81,-56 501.17,-53.57 506.12,-53.57 524.48,-56 526.75,-56.3 529.07,-56.66 531.39,-57.08"/>
<polygon fill="blue" stroke="blue" points="541.11,-59.08 530.4,-61.47 537.4,-58.31 531.31,-57.06 531.31,-57.06 531.31,-57.06 537.4,-58.31 532.22,-52.65 541.11,-59.08"/>
<text text-anchor="middle" x="503.64" y="-59" font-family="Times,serif" font-size="10.00" fill="blue">  状态继承</text>
</g>
<!-- C3_Choice -->
<g id="node10" class="node">
<title>C3_Choice</title>
<ellipse fill="lightblue" stroke="black" cx="666.1" cy="-72" rx="1.8" ry="1.8"/>
</g>
<!-- C3&#45;&gt;C3_Choice -->
<g id="edge8" class="edge">
<title>C3-&gt;C3_Choice</title>
<path fill="none" stroke="black" d="M627.35,-72C643.52,-72 659.28,-72 663.81,-72"/>
</g>
<!-- End1 -->
<g id="node5" class="node">
<title>End1</title>
<ellipse fill="lightgreen" stroke="black" cx="778.81" cy="-126" rx="34.91" ry="18"/>
<text text-anchor="middle" x="778.81" y="-121.8" font-family="Times,serif" font-size="14.00">结局 A</text>
</g>
<!-- End2 -->
<g id="node6" class="node">
<title>End2</title>
<ellipse fill="lightcoral" stroke="black" cx="778.81" cy="-72" rx="34.38" ry="18"/>
<text text-anchor="middle" x="778.81" y="-67.8" font-family="Times,serif" font-size="14.00">结局 B</text>
</g>
<!-- End3 -->
<g id="node7" class="node">
<title>End3</title>
<ellipse fill="lightgrey" stroke="black" cx="778.81" cy="-18" rx="34.38" ry="18"/>
<text text-anchor="middle" x="778.81" y="-13.8" font-family="Times,serif" font-size="14.00">结局 C</text>
</g>
<!-- C1_Choice&#45;&gt;C2 -->
<g id="edge5" class="edge">
<title>C1_Choice-&gt;C2</title>
<path fill="none" stroke="black" d="M233.28,-60.08C243.5,-60.72 316.31,-65.34 368.28,-68.63"/>
<polygon fill="black" stroke="black" points="367.97,-72.12 378.17,-69.26 368.41,-65.13 367.97,-72.12"/>
<text text-anchor="middle" x="316.15" y="-71.12" font-family="Times,serif" font-size="10.00"> 选择X (记录状态: 友好↑)</text>
</g>
<!-- C1_Alt&#45;&gt;C2 -->
<g id="edge7" class="edge">
<title>C1_Alt-&gt;C2</title>
<path fill="none" stroke="red" stroke-dasharray="5,2" d="M233.13,-36.95C242.34,-36.58 309.66,-34.33 361.98,-47 364.28,-47.56 366.6,-48.19 368.92,-48.88"/>
<polygon fill="red" stroke="red" points="367.74,-52.18 378.34,-52.04 369.97,-45.54 367.74,-52.18"/>
<text text-anchor="middle" x="316.15" y="-50" font-family="Times,serif" font-size="10.00"> 触发Y (记录状态: 敌对↑)</text>
</g>
<!-- C3_Choice&#45;&gt;End1 -->
<g id="edge9" class="edge">
<title>C3_Choice-&gt;End1</title>
<path fill="none" stroke="black" d="M668.04,-72.99C670.64,-75.69 678.3,-83.35 685.9,-88 702.1,-97.9 721.33,-106.3 738.01,-112.67"/>
<polygon fill="black" stroke="black" points="736.52,-115.85 747.12,-116.03 738.95,-109.29 736.52,-115.85"/>
<text text-anchor="middle" x="705.9" y="-110.42" font-family="Times,serif" font-size="10.00"> 达成条件 α</text>
</g>
<!-- C3_Choice&#45;&gt;End2 -->
<g id="edge10" class="edge">
<title>C3_Choice-&gt;End2</title>
<path fill="none" stroke="black" d="M668.35,-72C674.83,-72 705.52,-72 732.76,-72"/>
<polygon fill="black" stroke="black" points="732.63,-75.5 742.63,-72 732.63,-68.5 732.63,-75.5"/>
<text text-anchor="middle" x="705.9" y="-75" font-family="Times,serif" font-size="10.00"> 达成条件 β</text>
</g>
<!-- C3_Choice&#45;&gt;End3 -->
<g id="edge11" class="edge">
<title>C3_Choice-&gt;End3</title>
<path fill="none" stroke="black" d="M668.04,-71.01C670.64,-68.31 678.3,-60.65 685.9,-56 702.22,-46.03 721.62,-37.57 738.38,-31.19"/>
<polygon fill="black" stroke="black" points="739.36,-34.56 747.53,-27.82 736.94,-27.99 739.36,-34.56"/>
<text text-anchor="middle" x="705.9" y="-59" font-family="Times,serif" font-size="10.00"> 其他情况</text>
</g>
</g>
</svg>
